X:1
T: George Reid
C:Alexander Walker
R:Strathspey
Q: 128
K:Em
M:4/4
L:1/16
|:D2|B,3E E3F BE3 G3E|BE3 G3E A3D F3D|B,3E G3E G3A Be3|d3B A3F EEE2 E2D2|
B,3E E3F BE3 G3E|BE3 G3E A3D F3D|G3F Ge3 F3D Fd3|A3F D3F EEE2 E2d2|
Be3 e3g f3d A3F|B3E dcBA BE3 B3e|g3e f3d A3F D3F|B3G A3F EEE2 E3g|
b3e gfe cd3 AF3|DB,3 EG3 eB3 EG3|EF3 AG3 BA3 dB3|ed3 BA3 FEE E2 E2:|
